X:1
T:Munster Buttermilk
Z:id:hn-jig-377
R:jig
M:6/8
K:D
|:dcd edB|A2F FEF|AFE EFA|BAF DFA|
def edB|A2F FEF|AFE DEF|EDC D3:|
|:A2B d2e|~f3 fed|~e3 edB|dcd edB|
A2B d2e|~f3 fed|edB Adf|edc d3:|
</abc>
